!!!COM: Bach, Johann Sebastian
!!!OPR: Die Kunst der Fuge
!!!XEN: The Art of Fugue
!!!OTL:
!!!OMV: 15
!!!SCT: BWV 1080
!!!SCA: Thematisch-systematisches Verzeichnis der musikalischen Werke Johann Sebastian Bach: Bach-Werke-Verzeichnis (Schmieder)
!!!YOR: Bach Gesellschaft Edition xxv,1
!!!EED: Frances Bennion
!!!ENC: Frances Bennion
!!!CDT: 1685/3//-1750/7/28/
!!!OCY: Deutschland
!!!YEC: Copyright (c) 1994, 2000 Center for Computer Assisted Research in the Humanities
!!!YEM: Rights to all derivative editions reserved.
!!!YEM: Refer to licensing agreement for further details.
!!!YEN: United States of America
**kern	**kern
*k[b-]	*k[b-]
*d:	*d:
*clefG	*clefC
*M2/2	*M2/2
=1	=1
8d	1r
8b-	.
2a	.
4g	.
=2	=2
8f	1r
16e	.
16d	.
2e-	.
4d	.
=3	=3
8c#	1r
16d	.
16e	.
2d	.
4e	.
=4	=4
8f	1r
8A	.
2g	.
8f	.
8e	.
=5	=5
16f	4A
16g	.
4a	.
.	4C#
8g	.
8f	[2D
8dd	.
8g	.
8ee	.
=6	=6
8a	2D]
8ff	.
8b	.
8dd	.
8cc	2E
8b-	.
8gg	.
8b-	.
=7	=7
16a	4F#
16ee-	.
4dd	.
.	8G
8cc	8A
8b-	[2G
8gg	.
8cc	.
8aa	.
=8	=8
8dd	2G]
8bb-	.
8ee	.
8gg	.
8ff	2A
8ee-	.
8ccc	.
8ee-	.
=9	=9
8dd	4B-
4d	.
.	8A
8e	8G
8f	[2A
8a	.
8dd	.
8ff	.
=10	=10
8g	2A]
8ee	.
8f	.
8dd	.
8e	2G
8cc#	.
8dd	.
8ee	.
=11	=11
8a	4F
16dd	.
16cc	.
8b-	4d
8a	.
8g	[2E
16gg	.
16ff	.
8ee	.
8dd	.
=12	=12
8cc#	2E]
16ee	.
16dd	.
8cc#	.
8b	.
8a	4F
16aa	.
16gg	.
16ff	4G
16ee	.
16dd	.
16cc#	.
=13	=13
4dd	8F
.	8E
4r	2D
8d	.
4b-	.
.	4E
16a	.
16g	.
=14	=14
16a	4F
16f	.
4d	.
.	4AA
16e	.
16f	.
16g	4E
16e	.
4c#	.
.	4GG
16d	.
16e	.
=15	=15
16f	4D
16e	.
4d	.
.	4FF
8dd	.
8ee-	4C
8ee	.
8ff	4AA
8ff#	.
=16	=16
8gg	4BB
8gg#	.
8aa	4C
4bb-	.
.	4EE
16aa	.
16gg	.
8aa	4C#
8ee	.
=17	=17
16ff	8D
16ee	.
4dd	8GG#
.	2AA
16cc	.
16b	.
8cc	.
4ff	.
.	4BB
16ee	.
16dd	.
=18	=18
16ee	4C
16cc	.
4a	.
.	4EE
16b	.
16cc	.
16dd	4BB
16b	.
4g#	.
.	4DD
16a	.
16b	.
=19	=19
16cc	4AA
16b	.
4a	.
.	4CC
8A	.
8B-	4GG
8B	.
8c	4EE
8c#	.
=20	=20
8d	4FF#
8d#	.
8e	4GG
4f	.
.	4BBB
16e	.
16d	.
8e	4GG#
8B	.
=21	=21
16c	4AA
16B	.
8A	.
8r	2A
8cc	.
8d	.
8b-	.
8e	4G
[8b-	.
=22	=22
16b-]	4F
16a	.
16g	.
16a	.
16b-	4D
16a	.
16b-	.
16b	.
16cc	4AA
16b	.
16cc	.
16cc#	.
8dd	4FF
8d	.
=23	=23
8d	4E
8c#	.
8r	4GG
8e	.
8e	4F
8d	.
8r	4AA
8f	.
=24	=24
8f	4G
4e	.
.	4BB-
4dd	.
.	4AA
16cc#	.
16dd	.
8ee	4GG
[8g	.
=25	=25
8g]	4D
16f	.
16e	.
4.f	8AA
.	8BB
.	4C
16e	.
16d	.
8c	4D
8B	.
=26	=26
8c	4E
16cc	.
16b	.
4.cc	8EE
.	8FF#
.	4GG
16b-	.
16a	.
8g	4AA
8f#	.
=27	=27
8g	4BB-
16gg	.
16ff#	.
4.gg	8GG
.	8AA
.	4BB
4ff	.
.	4C#
8ee	.
=28	=28
8ff	4D
16bb-	.
16aa	.
[4bb-	8DD
.	8EE
16bb-]	8FF
16aa	.
16gg	8GG
16ff	.
16ee	8AA
16dd	.
16cc#	8BB-
16dd	.
=29	=29
16cc#	2AA
16ff	.
16ee	.
16dd#	.
16ee	.
16dd	.
16cc#	.
16dd	.
16cc	2r
16b	.
16cc	.
16b-	.
16a	.
16b-	.
16a	.
16g#	.
=30	=30
8a	4A
16c#	.
16d	.
8e	2C#
16e	.
16f	.
16g	.
16a	.
4b-	.
.	8D
16a	8E
16g	.
=31	=31
16f	8D
16e	.
16d	8F
16e	.
16f	2A
16g	.
16a	.
16b	.
16cc#	.
16b	.
16a	.
16b	.
16cc#	8G
16dd	.
16ee	8F
16ff	.
=32	=32
16gg	8E
16ff	.
16ee	8G
16ff	.
16gg	2B-
16aa	.
16bb-	.
16aa	.
16gg	.
16ff	.
16ee	.
16dd	.
16cc#	8A
16dd	.
[8ee	8G
=33	=33
8ee]	8F#
4dd	8G#
.	2A
16cc	.
16b	.
8cc	.
4ff	.
.	4AA
16ee	.
16dd#	.
=34	=34
8ee	4GG#
4b	.
.	4GG
8cc#	.
8dd	4FF#
4a	.
.	4FF
8b	.
=35	=35
8cc	4EE
4g	.
.	4EE-
8a	.
16b-	4DD
16a	.
8.g	.
.	[4CC#
16a	.
16g	.
16f#	.
=36	=36
8g	4CC#]
8A	.
8r	8DD
4g	8EE
.	4DD
16f	.
16e	.
16d	4GG
16c#	.
[8e	.
=37	=37
16e]	8FF#
16d	.
4dd	8GG#
.	2AA
16cc	.
16b	.
8cc	.
16b-	.
16a	.
16g	8BB-
16f#	.
[8a	8C
=38	=38
16a]	4BB-
16g	.
16a	.
16b-	.
16cc	2FF#
16b-	.
8a	.
8ee-	.
4dd	.
.	8GG
8cc	8AA
=39	=39
16b-	8GG
16cc	.
16dd	8BB-
16ee	.
16ff#	2D
16ee	.
8dd	.
8bb-	.
4aa	.
.	8C
8gg	8BB-
=40	=40
16ff#	8AA
16gg	.
16aa	8C
16bb-	.
16ccc	2E-
16ee-	.
16dd	.
16cc	.
4.ff#	.
.	8D
16ee	8C
16ff#	.
=41	=41
[4gg	8BB
.	8C#
16gg]	2D
16ff	.
16ee	.
16gg	.
16ff	.
16ee	.
16dd	.
16cc#	.
16cc	4d
16b-	.
16a	.
16g#	.
=42	=42
8a	4c#
8aa	.
8dd	4c
8ff#	.
8g	4B
8gg	.
8cc	4B-
8ee	.
=43	=43
8f	4A
8ff	.
8b	4G#
8dd	.
8e	4G
8ee	.
16a	[4F#
16cc#	.
16dd	.
16ee-	.
=44	=44
16dd	4F#]
16b	.
4cc	.
.	8G
4cc	8A
.	4G
4b-	.
.	4c
[8a	.
=45	=45
8a]	8B
4g	8c#
.	4d
16f	.
16e	.
8f	4r
16b-	.
16a	.
16g	4BB-
16f	.
16e	.
16d	.
=46	=46
16c#	4A
16d	.
8e	.
8r	4C#
8.e	.
.	4G
16f	.
16e	.
16d	.
16e	[4C#
16f	.
16g	.
16a	.
=47	=47
16b-	8C#]
16a	.
16g	8D
16f#	.
[4g	8E
.	8D
16g]	8C#
16a	.
16g	8D
16f#	.
[4g	8C#
.	8C
=48	=48
16g]	8BB
16a	.
16g	8C
16f#	.
8g	8BB
8.gg	8BB-
.	4AA
16dd	.
16cc#	.
16b	.
16a	4A
16cc#	.
16ee	.
16gg	.
=49	=49
16ff	4A
16ee	.
16dd	.
16cc#	.
8dd	4B-
8b-	.
16a	4r
16g	.
4ee-	.
.	4G
[8dd	.
=50	=50
8dd]	4G#
16cc#	.
16b	.
8cc#	4A
8a	.
16g	4r
16f	.
4dd	.
.	4F
[8cc	.
=51	=51
8cc]	4F#
16b	.
16a	.
8b	2G
8g	.
16f	.
16e	.
16g	.
16b-	.
16cc#	[4AA
16g	.
16f	.
16e	.
=52	=52
16d	4AA]
16B	.
8.c#	.
.	8BB-
16d	.
16e	8AA
16f	.
16e	4GG
16c#	.
4b-	.
.	4E
16a	.
16g	.
=53	=53
8f	8D
8e	8B-
8f	2A
8d	.
2c#	.
.	4G
=54	=54
4d	8F
.	16E
.	16D
2.r	2E-
.	4D
=55	=55
1r	8C#
.	16D
.	16E
.	2D
.	4E
=56	=56
1r	8F
.	8AA
.	2G
.	8F
.	8E
=57	=57
4aa	16F
.	16G
.	4A
4cc#	.
.	8G
[2dd	8F
.	8d
.	8G
.	8e
=58	=58
2dd]	8A
.	8f
.	8B
.	8d
2ee	8c
.	8B-
.	8g
.	8B-
=59	=59
4ff#	16A
.	16e-
.	4d
8gg	.
8aa	8c
[2gg	8B-
.	8g
.	8c
.	8a
=60	=60
2gg]	8d
.	8b-
.	8e
.	8g
2aa	8f
.	8e-
.	8cc
.	8e-
=61	=61
4bb-	8d
.	4D
8aa	.
8gg	8E
[2aa	8F
.	8A
.	8d
.	8f
=62	=62
2aa]	8G
.	8e
.	8F
.	8d
2gg	8E
.	8c#
.	8d
.	8e
=63	=63
4ff	8A
.	16d
.	16c
4ddd	8B-
.	8A
[2ee	8G
.	16g
.	16f
.	8e
.	8d
=64	=64
2ee]	8c#
.	16e
.	16d
.	8c#
.	8B
4ff	8A
.	16a
.	16g
4gg	16f
.	16e
.	16d
.	16c#
=65	=65
8ff	4d
8ee	.
2dd	4r
.	8D
.	4B-
4ee	.
.	16A
.	16G
=66	=66
4ff	16A
.	16F
.	4D
4a	.
.	16E
.	16F
4ee	16G
.	16E
.	4C#
4g	.
.	16D
.	16E
=67	=67
4dd	16F
.	16E
.	4D
4f	.
.	8d
4cc	8e-
.	8e
4a	8f
.	8f#
=68	=68
4b	8g
.	8g#
4cc	8a
.	4b-
4e	.
.	16a
.	16g
4cc#	8a
.	8e
=69	=69
8dd	16f
.	16e
8g#	4d
2a	.
.	16c
.	16B
.	8c
.	4f
4b	.
.	16e
.	16d
=70	=70
4cc	16e
.	16c
.	4A
4e	.
.	16B
.	16c
4b	16d
.	16B
.	4G#
4d	.
.	16A
.	16B
=71	=71
4a	16c
.	16B
.	4A
4c	.
.	8AA
4g	8BB-
.	8BB
4e	8C
.	8C#
=72	=72
4f#	8D
.	8D#
4g	8E
.	4F
4B	.
.	16E
.	16D
4g#	8E
.	8BB
=73	=73
4a	16C
.	16BB
.	8AA
2aa	8r
.	8c
.	8D
.	8B-
4gg	8E
.	[8B-
=74	=74
4ff	16B-]
.	16A
.	16G
.	16A
4dd	16B-
.	16A
.	16B-
.	16B
4a	16c
.	16B
.	16c
.	16c#
4f	8d
.	8D
=75	=75
4ee	8D
.	8C#
4g	8r
.	8E
4ff	8E
.	8D
4a	8r
.	8F
=76	=76
4gg	8F
.	4E
4b-	.
.	4d
4a	.
.	16c#
.	16d
4g	8e
.	[8G
=77	=77
4dd	8G]
.	16F
.	16E
8a	4.F
8b	.
4cc	.
.	16E
.	16D
4dd	8C
.	8BB
=78	=78
4ee	8C
.	16c
.	16B
8e	4.c
8f#	.
4g	.
.	16B-
.	16A
4a	8G
.	8F#
=79	=79
4b-	8G
.	16g
.	16f#
8g	4.g
8a	.
4b	.
.	4f
4cc#	.
.	8e
=80	=80
4dd	8f
.	16b-
.	16a
8d	[4b-
8e	.
8f	16b-]
.	16a
8g	16g
.	16f
8a	16e
.	16d
8b-	16c#
.	16d
=81	=81
2a	16c#
.	16f
.	16e
.	16d#
.	16e
.	16d
.	16c#
.	16d
2r	16c
.	16B
.	16c
.	16B-
.	16A
.	16B-
.	16A
.	16G#
=82	=82
4aa	8A
.	16C#
.	16D
2cc#	8E
.	16E
.	16F
.	16G
.	16A
.	4B-
8dd	.
8ee	16A
.	16G
=83	=83
8dd	16F
.	16E
8ff	16D
.	16E
2aa	16F
.	16G
.	16A
.	16B
.	16c#
.	16B
.	16A
.	16B
8gg	16c#
.	16d
8ff	16e
.	16f
=84	=84
8ee	16g
.	16f
8gg	16e
.	16f
2bb-	16g
.	16a
.	16b-
.	16a
.	16g
.	16f
.	16e
.	16d
8aa	16c#
.	16d
8gg	[8e
=85	=85
8ff#	8e]
8gg#	4d
2aa	.
.	16c
.	16B
.	8c
.	4f
4a	.
.	16e
.	16d#
=86	=86
4g#	8e
.	4B
4g	.
.	8c#
4f#	8d
.	4A
4f	.
.	8B
=87	=87
4e	8c
.	4G
4e-	.
.	8A
4d	16B-
.	16A
.	8.G
[4c#	.
.	16A
.	16G
.	16F#
=88	=88
4c#]	8G
.	8AA
8d	8r
8e	4G
4d	.
.	16F
.	16E
4g	16D
.	16C#
.	[8E
=89	=89
8f#	16E]
.	16D
8g#	4d
2a	.
.	16c
.	16B
.	8c
.	16B-
.	16A
8b-	16G
.	16F#
8cc	[8A
=90	=90
4b-	16A]
.	16G
.	16A
.	16B-
2f#	16c
.	16B-
.	8A
.	8e-
.	4d
8g	.
8a	8c
=91	=91
8g	16B-
.	16c
8b-	16d
.	16e
2dd	16f#
.	16e
.	8d
.	8b-
.	4a
8cc	.
8b-	8g
=92	=92
8a	16f#
.	16g
8cc	16a
.	16b-
2ee-	16cc
.	16e-
.	16d
.	16c
.	4.f#
8dd	.
8cc	16e
.	16f#
=93	=93
8b	[4g
8cc#	.
2dd	16g]
.	16f
.	16e
.	16g
.	16f
.	16e
.	16d
.	16c#
4ddd	16c
.	16B-
.	16A
.	16G#
=94	=94
4ccc#	8A
.	8a
4ccc	8d
.	8f#
4bb	8G
.	8g
4bb-	8c
.	8e
=95	=95
4aa	8F
.	8f
4gg#	8B
.	8d
4gg	8E
.	8e
[4ff#	16A
.	16c#
.	16d
.	16e-
=96	=96
4ff#]	16d
.	16B
.	4c
8gg	.
8aa	4c
4gg	.
.	4B-
4ccc	.
.	[8A
=97	=97
8bb	8A]
8ccc#	4G
4ddd	.
.	16F
.	16E
4r	8F
.	16B-
.	16A
4b-	16G
.	16F
.	16E
.	16D
=98	=98
4aa	16C#
.	16D
.	8E
4cc#	8r
.	8.E
4gg	.
.	16F
.	16E
.	16D
[4cc#	16E
.	16F
.	16G
.	16A
=99	=99
8cc#]	16B-
.	16A
8dd	16G
.	16F#
8ee	[4G
8dd	.
8cc#	16G]
.	16A
8dd	16G
.	16F#
8cc#	[4G
8cc	.
=100	=100
8b	16G]
.	16A
8cc	16G
.	16F#
8b	8G
8b-	8.g
4a	.
.	16d
.	16c#
.	16B
4aa	16A
.	16c#
.	16e
.	16g
=101	=101
4aa	16f
.	16e
.	16d
.	16c#
4bb-	8d
.	8B-
4r	16A
.	16G
.	4e-
4gg	.
.	[8d
=102	=102
4gg#	8d]
.	16c#
.	16B
4aa	8c#
.	8A
4r	16G
.	16F
.	4d
4ff	.
.	[8c
=103	=103
4ff#	8c]
.	16B
.	16A
2gg	8B
.	8G
.	16F
.	16E
.	16G
.	16B-
[4a	16c#
.	16G
.	16F
.	16E
=104	=104
4a]	16D
.	16BB
.	8.C#
8b-	.
.	16D
8a	16E
.	16F
4g	16E
.	16C#
.	4B-
4ee	.
.	16A
.	16G
=105	=105
8dd	8F
8bb-	8E
2aa	8F
.	8D
.	2C#
4gg	.
=106	=106
8ff	4.D
16ee	.
16dd	.
2ee-	.
.	16C
.	16BB
.	8C
.	16BB-
.	16AA
4dd	8BB-
.	16G
.	16F#
=107	=107
8cc#	4.G
16dd	.
16ee	.
2dd	.
.	16F
.	16E
.	8F
.	16E
.	16D
4ee	8C#
.	16A
.	16G#
=108	=108
8ff	8A
8a	16d
.	16c
2gg	8B-
.	16A
.	16G
.	4A
8ff	4AA
8ee	.
=109	=109
1dd	1D
==	==
*-	*-
!!!RWG1: This file contains only pitch and duration data.
!!!RWG2: Transposing instruments are not transposed.
!!!RWG3: Spines may have incompatible meters.
!!!RWG4: Durations of rests and tied notes may be interpreted.
!!!RWG: Key is interpreted using the Humdrum key tool.
!!!AFT: stage1
!!!END: 1997/04/15/
!!format changes:
!!content changes:
!!public access: complete
!!!KEY: 3713655181
!!!EMD: Converted from MuseData to Humdrum Dec 19, 2000, by Andreas Kornstaedt using muse2kern.
